img/icons/icon-enter.svg

<?xml version="1.0" encoding="UTF-8"?>
<svg width="18px" height="18px" viewBox="0 0 18 18" version="1.1" xmlns="http://www.w3.org/2000/svg" xmlns:xlink="http://www.w3.org/1999/xlink">
    <!-- Generator: Sketch 59.1 (86144) - https://sketch.com -->
    <title>exit_to_app_24px</title>
    <desc>Created with Sketch.</desc>
    <g id="Page-1" stroke="none" stroke-width="1" fill="none" fill-rule="evenodd">
        <g id="exit_to_app_24px" fill="#E53935">
            <path d="M2,0 L16,0 C17.1,0 18,0.9 18,2 L18,16 C18,17.1 17.1,18 16,18 L2,18 C0.89,18 0,17.1 0,16 L0,12 L2,12 L2,16 L16,16 L16,2 L2,2 L2,6 L0,6 L0,2 C0,0.9 0.89,0 2,0 Z M8.5,14 L7.09,12.59 L9.67,10 L0,10 L0,8 L9.67,8 L7.09,5.41 L8.5,4 L13.5,9 L8.5,14 Z" id="Shape"></path>
        </g>
    </g>
</svg>

<svg width="18" height="18" xmlns="http://www.w3.org/2000/svg"><path d="M2 0h14c1.1 0 2 .9 2 2v14c0 1.1-.9 2-2 2H2a2 2 0 01-2-2v-4h2v4h14V2H2v4H0V2a2 2 0 012-2zm6.5 14l-1.41-1.41L9.67 10H0V8h9.67L7.09 5.41 8.5 4l5 5-5 5z" fill="#E53935" fill-rule="evenodd"/></svg>
